teeny/solid/redwoodjs.svg

<svg width="15" height="15" viewBox="0 0 15 15" fill="none" xmlns="http://www.w3.org/2000/svg">
<path d="M7.25193 0.0658784C7.40565 -0.0219595 7.59435 -0.0219595 7.74807 0.0658784L11.1071 1.98533L7.49994 4.33783L3.89283 1.98536L7.25193 0.0658784Z" fill="black"/>
<path d="M3.18539 2.71787L1.95854 4.25143L4.19823 6.49112L6.58464 4.93476L3.18539 2.71787Z" fill="black"/>
<path d="M1.43842 5.14552L0.519239 8.36264C0.484872 8.48292 0.496842 8.61172 0.552787 8.72361L0.607449 8.83293L3.34226 7.04936L1.43842 5.14552Z" fill="black"/>
<path d="M1.0576 9.73323L2.42919 12.4764L6.65593 10.363L4.06486 7.77197L1.0576 9.73323Z" fill="black"/>
<path d="M3.27729 13.1704L7.29693 14.9569C7.42621 15.0144 7.57379 15.0144 7.70307 14.9569L11.7227 13.1704L7.50001 11.059L3.27729 13.1704Z" fill="black"/>
<path d="M12.5708 12.4764L13.9424 9.73329L10.9351 7.77202L8.34408 10.363L12.5708 12.4764Z" fill="black"/>
<path d="M14.3925 8.83299L14.4472 8.72361C14.5032 8.61172 14.5151 8.48292 14.4808 8.36264L13.5616 5.14553L11.6577 7.04941L14.3925 8.83299Z" fill="black"/>
<path d="M13.0415 4.25144L11.8146 2.71782L8.41524 4.93476L10.8017 6.49117L13.0415 4.25144Z" fill="black"/>
<path d="M7.49994 5.5317L10.0791 7.21378L7.50001 9.7929L4.92083 7.21373L7.49994 5.5317Z" fill="black"/>
</svg>

<svg viewBox="0 0 15 15" xmlns="http://www.w3.org/2000/svg"><g><path d="M7.25.06c.15-.09.34-.09.49 0l3.35 1.91 -3.61 2.35 -3.61-2.36L7.22.04Z"/><path d="M3.18 2.71L1.95 4.24l2.23 2.23 2.38-1.56 -3.4-2.22Z"/><path d="M1.43 5.14L.51 8.35c-.04.12-.03.24.03.36l.05.1 2.73-1.79 -1.91-1.91Z"/><path d="M1.05 9.73l1.37 2.74 4.22-2.12 -2.6-2.6 -3.01 1.96Z"/><path d="M3.27 13.17l4.01 1.78c.12.05.27.05.4 0l4.01-1.79 -4.23-2.12 -4.23 2.11Z"/><path d="M12.57 12.47l1.37-2.75 -3.01-1.97 -2.6 2.59 4.22 2.11Z"/><path d="M14.39 8.83l.05-.11c.05-.12.06-.25.03-.37l-.92-3.22 -1.91 1.9 2.73 1.78Z"/><path d="M13.04 4.25l-1.23-1.54 -3.4 2.21 2.38 1.55 2.23-2.24Z"/><path d="M7.49 5.53l2.57 1.68 -2.58 2.57L4.9 7.2l2.57-1.69Z"/></g></svg>
